!!!!SEGMENT: pl-wtm--r-1461--010_stefani-jozef--wszechstronne-cwiczenia-glosowe-kwinty-z-portamento.krn
!!!cenid: 18xx:2187
!!!COM: Stefani, Józef
!!!COM-rismID: pe30024097
!!!CDT: 1800/04/16-1876/03/19
!!!CNT: Polish
!!!GTL: Wszechstronne ćwiczenia głosowe
!!!OTL: Kwinty z portamento
!!!OMV: 010
!!!PDT:
!!!AGN: Secular
!!!SMS-siglum: PL-Wtm
!!!SMS-shelfmark: R 1461
!!!SMS-shelfwork: 001-010 G
!!!SMS-variant:
!!!SMS-altvar:
!!!NIFC-rismSourceID: 1001120710
!!!NIFC-rismChildID: 1001120710
!!!NIFC-islandoraID: pl-wtm:25869
!!!URL-pdf-islandora: https://repozytorium.nifc.pl/islandora/object/pl-wtm%3A25869/datastream/PDF/view
!!!URL-scan: https://polish.musicsources.pl/pl/lokalizacje/galeria/rekopisy/6276 @EN{Scan on Polish Music Sources Website} @PL{Skany w portalu Dziedzictwo Muzyki Polskiej w otwartym dostępie}
!!!IIIF:
!!!ONB-nifc: UWAGA: skan 0008, s. 12
!!!AIN: 1 empty 1 tenor
!!!key:
**kern	**kern	**kern	**text	**dynam
*part2	*part2	*part1	*part1	*part1
*staff3	*staff2	*staff1	*staff1	*
*Iempty	*Iforte	*Itenor	*	*
*	*I"Fortepian	*I"Soprano/Tenore	*	*
*	*I'pf	*I'S/T	*	*
*clefF4	*clefG2	*clefG2	*	*
*k[]	*k[]	*k[]	*	*
*C:	*C:	*C:	*	*
*M4/4	*M4/4	*M4/4	*	*
*met(c)	*met(c)	*met(c)	*	*
=1	=1	=1	=1	=1
*2\right	*2\right	*2\right	*	*
!!LO:TX:t=P:problem:all\right:global
!	!	!LO:TX:a:Bi:t=Kwinty z portamento.	!	!
!	!	!	!	!LO:HP:b
4C 4CC\	4r	(>2c/	do	<
4rGG	4c 4G< 4E</	.	.	.
.	.	16qqg/	.	.
2E 2EE\	4r	4g/)	sol	[
.	4g 4c/	4r	.	.
=2	=2	=2	=2	=2
!	!	!	!	!LO:HP:b
4F 4FF\	4r	(>2d/	re	<
4r	4d 4A/	.	.	.
.	.	16qqa/	.	.
2F 2FF/	4r	4a/)	la	[
.	4a 4d/	4r	.	.
=3	=3	=3	=3	=3
!	!	!	!	!LO:HP:b
4G 4GG/	4r	(>2e/	mi	<
4r	4e 4B/	.	.	.
.	.	16qqb/	.	.
2G 2GG/	4r	4b/)	si	[
.	4b 4e/	4r	.	.
=4	=4	=4	=4	=4
!	!	!	!	!LO:HP:b
4A 4AA\	4r	(>2f/	fa	<
4r	4f 4c/	.	.	.
.	.	16qqcc/	.	.
2A 2AA\	4r	4cc\)	do	[
.	4cc 4f/	4r	.	.
=5	=5	=5	=5	=5
!	!	!	!	!LO:HP:b
4B 4BB\	4r	(<2g/	sol	<
4r	4g 4d/	.	.	.
.	.	16qqdd/	.	.
2B 2BB\	4r	4dd\)	re	[
.	4dd 4g/	4r	.	.
!!LO:LB:g=original
=6	=6	=6	=6	=6
!	!	!	!	!LO:HP:b
4c 4C\	4r	(>2a/	la	<
4r	4a 4e/	.	.	.
.	.	16qqee/	.	.
2c 2C\	4r	4ee\)	mi	[
.	4ee 4a\	4r	.	.
=7	=7	=7	=7	=7
!	!	!	!	!LO:HP:b
4d 4D\	4r	(>2b\	si	<
4r	4b 4f/	.	.	.
.	.	16qqff/	.	.
2d 2D\	4r	4ff\)	fa	[
.	4ff 4b\	4r	.	.
=8	=8	=8	=8	=8
!	!	!	!	!LO:HP:b
4e 4E\	4r	(>2cc\	do	<
4r	4cc 4g\	.	.	.
.	.	16qqgg/	.	.
2e 2E\	4r	4gg\)	sol	[
.	4gg 4cc\	4r	.	.
=9	=9	=9	=9	=9
!	!	!	!	!LO:HP:b
4f 4F\	4r	(>2dd\	re	<
4r	4dd 4a\	.	.	.
.	.	16qqaa/	.	.
2f 2F\	4r	4aa\)	la	[
.	4aa 4dd\	4r	.	.
=10||	=10||	=10||	=10||	=10||
!	!	!	!	!LO:HP:b
4f 4F\	4r	(>2aa\	la	>
4r	4aa 4dd\	.	.	.
.	.	16qqdd/	.	.
2f 2F\	4r	4dd\)	re	.
.	4dd 4a\	4r	.	]
!!LO:LB:g=original
=11	=11	=11	=11	=11
!	!	!	!	!LO:HP:b
4e 4E\	4r	(>2gg\	sol	>
4r	4gg 4cc\	.	.	.
.	.	16qqcc/	.	.
2e 2E\	4r	4cc\)	do	]
.	4cc 4g/	4r	.	.
=12	=12	=12	=12	=12
!	!	!	!	!LO:HP:b
4d 4D\	4r	(>2ff\	fa	>
4r	4ff 4b\	.	.	.
.	.	16qqb/	.	.
2d 2D\	4r	4b\)	si	]
.	4b 4f/	4r	.	.
=13	=13	=13	=13	=13
!	!	!	!	!LO:HP:b
4c 4C\	4r	(>2ee\	mi	>
4r	4ee 4a\	.	.	.
.	.	16qqa/	.	.
2c 2C\	4r	4a/)	la	]
.	4a 4e/	4r	.	.
=14	=14	=14	=14	=14
!	!	!	!	!LO:HP:b
4B 4BB\	4r	(>2dd\	re	>
4r	4dd 4g/	.	.	.
.	.	16qqg/	.	.
2B 2BB\	4r	4g/)	sol	]
.	4g 4d/	4r	.	.
=15	=15	=15	=15	=15
!	!	!	!	!LO:HP:b
4A 4AA\	4r	(>2cc\	do	>
4r	4cc 4f/	.	.	.
.	.	16qqf/	.	.
2A 2AA\	4r	4f/)	fa	]
.	4f 4c/	4r	.	.
!!LO:LB:g=original
=16	=16	=16	=16	=16
!	!	!	!	!LO:HP:b
4G 4GG\	4r	(>2b/	si	>
4r	4b 4e/	.	.	.
.	.	16qqe/	.	.
2G 2GG\	4r	4e/)	mi	]
.	4e 4B/	4r	.	.
=17	=17	=17	=17	=17
!	!	!	!	!LO:HP:b
4F 4FF/	4r	(>2a/	la	>
4r	4a 4d/	.	.	.
.	.	16qqd/	.	.
2F 2FF/	4r	4d/)	re	]
.	4d 4A/	4r	.	.
=18	=18	=18	=18	=18
!	!	!	!	!LO:HP:b
4E 4EE/	4r	(<2g/	sol	>
4r	4g 4c/	.	.	.
.	.	16qqc/	.	.
2E 2EE\	4r	4c/)	do	]
.	4c 4G</	4r	.	.
=19	=19	=19	=19	=19
!	!	!	!	!LO:HP:b
4F 4FF\	4r	1d	re	<
4r	4d 4c 4A</	.	.	.
!	!	!	!	!LO:HP:b
2GG\	4r	.	.	[ >
.	4d 4B 4G< 4F</	.	.	.
=20	=20	=20	=20	=20
.	.	(16qqc/	.	]
4C 4CC\	4c 4G< 4E</	4c/)	do.	.
4r	4r	4r	.	.
2r	2r	2r	.	.
==	==	==	==	==
*-	*-	*-	*-	*-
!!!system-decoration: s1{(s2,s3)}
!!!RDF**kern: > = above
!!!RDF**kern: < = below
!!!RDF**kern: | = vertical stroke
!!!RDF**kern: N = linked
!!!RDF**kern: i = editorial accidental
!!!EED: Wojciech Jakubiak-Danek
!!!EEV: 2021-06-03
!!!ENC: Katarzyna Serwa
!!!END: 2021-05-17
!!!YEC: Copyright 2022 Narodowy Instytut Fryderyka Chopina (https://polishscores.org)
!!!YEM: License CC-BY-4.0 (https://creativecommons.org/licenses/by/4.0)
